src/img/webmoney.svg

<svg width="21" height="20" viewBox="0 0 21 20" fill="none" xmlns="http://www.w3.org/2000/svg">
<g clip-path="url(#clip0_4_184)">
<path d="M9.34077 0C10.751 0 12.0928 0.323103 13.2969 0.901077C13.4857 0.986269 13.6758 1.08823 13.864 1.19028L13.0384 1.92159L11.8007 0.646297L9.66802 2.51651L8.41214 1.17307L4.49048 4.65889L7.00126 7.39646L6.02108 8.24641L8.49822 10.984L7.51795 11.8336L11.0613 15.7274L13.1585 13.823L14.9826 15.8639C14.6211 16.136 14.2255 16.4086 13.796 16.6462C12.4886 17.3773 10.9747 17.8016 9.35814 17.8016C4.38691 17.8016 0.345546 13.8066 0.345546 8.89314C0.327991 4.01286 4.37007 0 9.34077 0ZM7.68931 8.34864L9.83937 6.44418L11.7662 8.56952L9.61567 10.4738L7.68931 8.34864ZM9.22053 12.0214L11.3531 10.1001L13.2969 12.2253L11.1467 14.1298L9.22053 12.0214ZM6.15942 4.72713L8.30886 2.82267L10.2352 4.948L8.08507 6.85238L6.15942 4.72713ZM10.0974 3.70661L11.6971 2.27842L13.1423 3.85978L11.5426 5.30484L10.0974 3.70661ZM12.9529 10.2528L14.5521 8.82456L15.9972 10.4224L14.3974 11.8516L12.9529 10.2528ZM14.3631 13.4668L15.9629 12.0382L17.4068 13.6195L15.8076 15.0644L14.3631 13.4668ZM15.0168 6.12107L16.0831 5.16879L17.0459 6.22339L15.9799 7.17531L15.0168 6.12107ZM13.6408 2.97548L14.7071 2.00651L15.6707 3.07753L14.6036 4.02972L13.6408 2.97548ZM16.3755 9.26693L17.4417 8.31474L18.422 9.36899L17.3389 10.3209L16.3755 9.26693ZM11.5768 6.90341L13.1766 5.47513L14.6211 7.05614L13.022 8.48469L11.5768 6.90341Z" fill="#3E9CDC"/>
</g>
<defs>
<clipPath id="clip0_4_184">
<rect width="20" height="20" fill="white" transform="translate(0.5)"/>
</clipPath>
</defs>
</svg>

<svg width="21" height="20" fill="none" xmlns="http://www.w3.org/2000/svg"><g clip-path="url(#clip0_4_184)"><path d="M9.34 0c1.411 0 2.753.323 3.957.901.189.085.379.187.567.29l-.826.73L11.801.647l-2.133 1.87-1.256-1.343L4.49 4.66l2.511 2.737-.98.85 2.477 2.738-.98.85 3.543 3.893 2.098-1.904 1.824 2.04c-.362.273-.758.546-1.187.783a9.07 9.07 0 01-4.438 1.156c-4.971 0-9.012-3.995-9.012-8.909C.328 4.013 4.37 0 9.34 0zM7.69 8.349l2.15-1.905 1.926 2.126-2.15 1.904-1.927-2.125zm1.53 3.672l2.133-1.92 1.944 2.124-2.15 1.905L9.22 12.02zM6.16 4.727l2.149-1.904 1.926 2.125-2.15 1.904L6.16 4.727zm3.937-1.02l1.6-1.429 1.445 1.582-1.6 1.445-1.445-1.598zm2.856 6.546l1.6-1.428 1.444 1.597-1.6 1.43-1.444-1.6zm1.41 3.214l1.6-1.429 1.444 1.582-1.6 1.444-1.444-1.597zm.654-7.346l1.066-.952.963 1.054-1.066.952-.963-1.054zM13.64 2.975l1.066-.968.964 1.07-1.067.953-.963-1.055zm2.734 6.292l1.067-.952.98 1.054-1.083.952-.963-1.054zm-4.798-2.364l1.6-1.428 1.444 1.581-1.599 1.429-1.445-1.582z" fill="#3E9CDC"/></g><defs><clipPath id="clip0_4_184"><path fill="#fff" transform="translate(.5)" d="M0 0h20v20H0z"/></clipPath></defs></svg>
